X: 28766
T: My Lily
R: waltz
M: 3/4
K: Amajor
E2|A4AA|A4 (3ABc|A3GF2|E4d2|c3cBA|c3cBA|B2cz2d|e4e^e|
f3fed|c2e3c|d4F2|E3EFG|A3AGF|EDCz2{c}d|c2c3B|A4:|
|:ag|a4ag|a4 (3abc'|a2g3f|e4d'2|c'3c'ba|c'3c'ba|b2c'2d'2|e'4e'2|
f'3f'e'd'|c'2e'3c'|d'4f2|e3efg|a3agf|ecc3c/d/|c2c3B|A4:|

